src/images/cafew-footer-logo.svg

<svg width="77" height="90" viewBox="0 0 77 90" fill="none" xmlns="http://www.w3.org/2000/svg">
<g opacity="0.45">
<path fill-rule="evenodd" clip-rule="evenodd" d="M71.3726 63.0794C67.3069 69.4093 46.9041 68.8324 38.4609 68.8324C30.0188 68.8324 11.4122 68.8325 5.54921 63.0794C0.390942 57.9543 0 40.0086 0 34.4162C0 28.8228 0.390942 10.8771 5.54921 5.82651C11.4122 0 30.0188 0 38.4609 0C46.9041 0 65.5096 0 71.3726 5.82651C76.5319 10.8771 77 28.8218 77 34.4162C77 40.0086 76.5319 57.9543 71.3726 63.0794ZM67.3069 9.86696C63.7884 6.37042 49.5614 5.74986 38.4609 5.74986C27.3604 5.74986 13.1324 6.37042 9.69315 9.86696C6.95659 12.5854 5.70664 25.1709 5.70664 34.4162C5.70664 43.6605 6.95764 56.247 9.69315 58.9655C13.1324 62.4599 27.3604 63.1592 38.4609 63.1592C49.5614 63.1592 63.7884 62.4599 67.3069 58.9655C70.0434 56.246 71.2152 43.6605 71.2152 34.4162C71.2162 25.1709 70.0434 12.5854 67.3069 9.86696ZM61.3656 41.8734H15.5562L12.7414 19.8106L26.7349 29.4434L38.4609 17.7137L50.2651 29.4444L64.2586 19.8116L61.3656 41.8734ZM60.2721 50.4971H16.729L16.0253 45.6807H60.8976L60.2721 50.4971ZM49.797 35.1932L38.4609 24.0064L27.1269 35.1932L18.5273 29.1336L19.5427 37.1358H57.3791L58.4727 29.1336L49.797 35.1932Z" fill="#CFCCC7"/>
<path d="M22.2171 84.8176C22.2171 85.1979 22.2699 85.5347 22.3755 85.828C22.4907 86.1105 22.6396 86.3495 22.822 86.5451C23.014 86.7298 23.2301 86.871 23.4702 86.9688C23.7102 87.0666 23.9599 87.1155 24.2191 87.1155C24.5552 87.1155 24.8433 87.0883 25.0833 87.034C25.333 86.9797 25.5538 86.9036 25.7459 86.8059C25.8515 86.7515 25.9667 86.6863 26.0915 86.6103C26.226 86.5342 26.3604 86.4853 26.4948 86.4636C26.7541 86.4093 26.9893 86.431 27.2006 86.5288C27.4118 86.6266 27.5895 86.8113 27.7335 87.0829C27.916 87.4197 27.9592 87.7565 27.8631 88.0933C27.7767 88.4301 27.6087 88.7126 27.359 88.9408C26.9557 89.3102 26.4708 89.5764 25.9043 89.7394C25.3378 89.9132 24.776 90.0001 24.2191 90.0001C23.595 90.0001 22.9852 89.9078 22.3899 89.7231C21.7946 89.5384 21.2617 89.245 20.7911 88.843C20.3302 88.4301 19.9558 87.9086 19.6677 87.2785C19.3892 86.6374 19.25 85.866 19.25 84.9643V81.5744C19.25 80.6726 19.3892 79.9067 19.6677 79.2765C19.9558 78.6355 20.3302 78.114 20.7911 77.712C21.2617 77.2991 21.7946 77.0003 22.3899 76.8156C22.9852 76.6309 23.595 76.5386 24.2191 76.5386C24.8625 76.5386 25.4242 76.6146 25.9043 76.7667C26.394 76.9188 26.7781 77.109 27.0566 77.3371C27.3542 77.5762 27.5607 77.8749 27.6759 78.2335C27.7911 78.5812 27.7623 78.9288 27.5895 79.2765C27.4454 79.559 27.2534 79.76 27.0134 79.8795C26.7733 79.999 26.5284 80.0316 26.2788 79.9773C26.1155 79.9447 25.9667 79.8958 25.8323 79.8306C25.7075 79.7546 25.5922 79.6894 25.4866 79.6351C25.3138 79.559 25.1313 79.5047 24.9393 79.4721C24.7568 79.4395 24.5168 79.4232 24.2191 79.4232C23.9599 79.4232 23.7102 79.4721 23.4702 79.5699C23.2301 79.6676 23.014 79.8143 22.822 80.0099C22.6396 80.1946 22.4907 80.4336 22.3755 80.727C22.2699 81.0095 22.2171 81.3408 22.2171 81.7211V84.8176Z" fill="#CFCCC7"/>
<path d="M31.9958 77.8912C32.1398 77.4349 32.3846 77.0981 32.7303 76.8808C33.0856 76.6527 33.4601 76.5386 33.8538 76.5386C34.2187 76.5386 34.5691 76.6527 34.9052 76.8808C35.2509 77.109 35.4909 77.4458 35.6254 77.8912L39.3846 89.7231H36.2159L35.6542 87.7022H31.9525L31.4052 89.7231H28.2941L31.9958 77.8912ZM32.7015 84.948H34.9052L33.8106 80.8899L32.7015 84.948Z" fill="#CFCCC7"/>
<path d="M40.1556 89.7231V79.1787C40.1556 78.7115 40.1892 78.315 40.2565 77.989C40.3333 77.6631 40.4581 77.3969 40.6309 77.1905C40.8038 76.984 41.0342 76.8374 41.3223 76.7504C41.6104 76.6527 41.9705 76.6038 42.4025 76.6038H47.1988C47.4101 76.6038 47.5877 76.6472 47.7318 76.7341C47.8758 76.8211 47.9958 76.9351 48.0918 77.0764C48.1879 77.2176 48.2551 77.3752 48.2935 77.549C48.3415 77.7228 48.3655 77.8912 48.3655 78.0542C48.3655 78.2172 48.3415 78.3856 48.2935 78.5594C48.2551 78.7224 48.1879 78.8745 48.0918 79.0158C48.0054 79.1461 47.8854 79.2548 47.7318 79.3417C47.5877 79.4178 47.4101 79.4558 47.1988 79.4558H43.5404C43.3772 79.4558 43.2667 79.4884 43.2091 79.5536C43.1515 79.6079 43.1227 79.7328 43.1227 79.9284V81.9819H46.8243C47.0356 81.9819 47.2132 82.0253 47.3573 82.1122C47.5013 82.1992 47.6213 82.3132 47.7173 82.4545C47.8134 82.5957 47.8806 82.7533 47.919 82.9271C47.967 83.1009 47.991 83.2693 47.991 83.4323C47.991 83.5953 47.967 83.7637 47.919 83.9375C47.8806 84.1005 47.8134 84.2526 47.7173 84.3939C47.6309 84.5242 47.5109 84.6329 47.3573 84.7198C47.2132 84.7959 47.0356 84.8339 46.8243 84.8339H43.1227V89.7231H40.1556Z" fill="#CFCCC7"/>
<path d="M52.3776 81.6722H56.3097C56.5209 81.6722 56.6986 81.7157 56.8426 81.8026C56.9866 81.8895 57.1067 82.0036 57.2027 82.1448C57.2987 82.2861 57.3659 82.4436 57.4043 82.6175C57.4523 82.7804 57.4763 82.9434 57.4763 83.1064C57.4763 83.2693 57.4523 83.4323 57.4043 83.5953C57.3659 83.7583 57.2987 83.9104 57.2027 84.0516C57.1163 84.182 56.9962 84.2906 56.8426 84.3776C56.6986 84.4536 56.5209 84.4916 56.3097 84.4916H52.3776V86.3984C52.3776 86.594 52.4064 86.7244 52.464 86.7896C52.5216 86.8439 52.632 86.871 52.7953 86.871H56.5833C56.7946 86.871 56.9722 86.9145 57.1163 87.0014C57.2699 87.0775 57.3899 87.1861 57.4763 87.3274C57.5724 87.4577 57.6396 87.6098 57.678 87.7837C57.726 87.9467 57.75 88.1096 57.75 88.2726C57.75 88.4356 57.726 88.604 57.678 88.7778C57.6396 88.9517 57.5724 89.1092 57.4763 89.2504C57.3803 89.3917 57.2603 89.5058 57.1163 89.5927C56.9722 89.6796 56.7946 89.7231 56.5833 89.7231H51.6718C51.2397 89.7231 50.8797 89.6796 50.5916 89.5927C50.3035 89.4949 50.0731 89.3428 49.9002 89.1364C49.7274 88.9299 49.6026 88.6637 49.5257 88.3378C49.4585 88.0118 49.4249 87.6153 49.4249 87.1481V79.1787C49.4249 78.7115 49.4585 78.315 49.5257 77.989C49.6026 77.6631 49.7274 77.3969 49.9002 77.1905C50.0731 76.984 50.3035 76.8374 50.5916 76.7504C50.8797 76.6527 51.2397 76.6038 51.6718 76.6038H56.4393C56.6506 76.6038 56.8282 76.6472 56.9722 76.7341C57.1163 76.8211 57.2363 76.9351 57.3323 77.0764C57.4283 77.2176 57.4955 77.3752 57.534 77.549C57.582 77.7228 57.606 77.8912 57.606 78.0542C57.606 78.2172 57.582 78.3856 57.534 78.5594C57.4955 78.7224 57.4283 78.8745 57.3323 79.0158C57.2459 79.1461 57.1259 79.2548 56.9722 79.3417C56.8282 79.4178 56.6506 79.4558 56.4393 79.4558H52.7953C52.632 79.4558 52.5216 79.4884 52.464 79.5536C52.4064 79.6079 52.3776 79.7328 52.3776 79.9284V81.6722Z" fill="#CFCCC7"/>
</g>
</svg>

<svg xmlns="http://www.w3.org/2000/svg" width="77" height="90" fill="none" viewBox="0 0 77 90"><g fill="#CFCCC7" opacity=".45"><path fill-rule="evenodd" d="M71.373 63.08c-4.066 6.33-24.469 5.752-32.912 5.752-8.442 0-27.049 0-32.912-5.753C.391 57.954 0 40.01 0 34.416s.39-23.539 5.55-28.59C11.411 0 30.018 0 38.46 0c8.444 0 27.05 0 32.913 5.827C76.532 10.877 77 28.822 77 34.417c0 5.592-.468 23.537-5.627 28.662zM67.307 9.866C63.788 6.37 49.56 5.75 38.46 5.75c-11.1 0-25.329.62-28.768 4.117-2.736 2.718-3.986 15.304-3.986 24.55 0 9.243 1.25 21.83 3.986 24.548 3.44 3.495 17.667 4.194 28.768 4.194 11.1 0 25.327-.7 28.846-4.194 2.736-2.719 3.908-15.305 3.908-24.549.001-9.245-1.172-21.83-3.908-24.549zm-5.941 32.006h-45.81L12.741 19.81l13.994 9.632 11.726-11.73 11.804 11.731 13.994-9.632-2.893 22.061zm-1.094 8.624H16.73l-.704-4.816h44.873l-.626 4.816zM49.797 35.193L38.461 24.006 27.127 35.193l-8.6-6.06 1.016 8.003h37.836l1.094-8.002-8.676 6.06z" clip-rule="evenodd"/><path d="M22.217 84.818c0 .38.053.717.159 1.01.115.282.264.522.446.717.192.185.408.326.648.424.24.098.49.147.75.147.335 0 .623-.028.863-.082.25-.054.47-.13.663-.228.106-.055.22-.12.346-.196a1.21 1.21 0 0 1 .403-.146c.26-.055.494-.033.706.065.21.098.389.282.532.554.183.337.226.674.13 1.01-.086.337-.254.62-.504.848-.403.37-.888.635-1.455.798A5.723 5.723 0 0 1 24.22 90a6.138 6.138 0 0 1-1.83-.277 4.48 4.48 0 0 1-1.598-.88 4.677 4.677 0 0 1-1.123-1.565c-.279-.64-.418-1.412-.418-2.314v-3.39c0-.901.14-1.667.418-2.297.288-.642.662-1.163 1.123-1.565a4.355 4.355 0 0 1 1.599-.896 6.138 6.138 0 0 1 1.83-.277c.643 0 1.204.076 1.684.228.49.152.874.342 1.153.57.297.24.504.538.619.897a1.33 1.33 0 0 1-.086 1.043c-.145.282-.337.483-.577.602a1.08 1.08 0 0 1-.734.098 1.847 1.847 0 0 1-.447-.146 5.558 5.558 0 0 0-.345-.196 2.313 2.313 0 0 0-.548-.163 4.256 4.256 0 0 0-.72-.049c-.26 0-.509.05-.749.147-.24.098-.456.244-.648.44a2.094 2.094 0 0 0-.447.717 2.835 2.835 0 0 0-.158.994v3.097zm9.779-6.927c.144-.456.389-.793.734-1.01a2.05 2.05 0 0 1 1.124-.342c.365 0 .715.114 1.051.342.346.228.586.565.72 1.01l3.76 11.832h-3.17l-.56-2.02h-3.703l-.547 2.02h-3.11l3.7-11.832zm.706 7.057h2.203l-1.094-4.058-1.11 4.058zm7.454 4.775V79.18c0-.468.033-.864.1-1.19.077-.326.202-.592.375-.799.173-.206.403-.353.691-.44.288-.097.648-.146 1.08-.146H47.2c.211 0 .389.043.533.13.144.087.264.201.36.342.096.142.163.3.202.473.048.174.072.342.072.505 0 .163-.024.332-.072.505a1.36 1.36 0 0 1-.202.457 1.03 1.03 0 0 1-.36.326 1.13 1.13 0 0 1-.533.114h-3.66c-.163 0-.273.032-.33.098-.059.054-.087.179-.087.374v2.054h3.701c.212 0 .39.043.533.13.144.087.264.201.36.343.096.14.164.298.202.472.048.174.072.342.072.505 0 .163-.024.332-.072.505a1.36 1.36 0 0 1-.202.457 1.03 1.03 0 0 1-.36.326 1.13 1.13 0 0 1-.533.114h-3.701v4.89h-2.967zm12.222-8.051h3.932c.21 0 .389.044.533.13.144.087.264.202.36.343.096.141.163.299.201.473a1.722 1.722 0 0 1 0 .977 1.36 1.36 0 0 1-.201.457c-.087.13-.207.239-.36.326a1.132 1.132 0 0 1-.533.114h-3.932v1.906c0 .196.028.326.086.392.058.054.168.081.331.081h3.788c.212 0 .39.044.533.13a.859.859 0 0 1 .36.326c.096.13.164.283.202.457a1.723 1.723 0 0 1 0 .994 1.348 1.348 0 0 1-.202.472 1.148 1.148 0 0 1-.36.343c-.144.087-.321.13-.533.13h-4.911c-.432 0-.792-.043-1.08-.13a1.512 1.512 0 0 1-.692-.457 1.906 1.906 0 0 1-.374-.798 5.996 5.996 0 0 1-.101-1.19v-7.97c0-.466.034-.863.1-1.189.078-.326.202-.592.375-.799.173-.206.404-.353.692-.44.288-.097.648-.146 1.08-.146h4.767c.212 0 .39.043.533.13.144.087.264.201.36.342.096.142.163.3.202.473.048.174.072.342.072.505 0 .163-.024.332-.072.505a1.364 1.364 0 0 1-.202.457 1.03 1.03 0 0 1-.36.326 1.13 1.13 0 0 1-.533.114h-3.644c-.163 0-.273.032-.331.098-.058.054-.086.179-.086.374v1.744z"/></g></svg>
